src/assets/images/icon-fully-customizable.svg

<svg width="48" height="48" viewBox="0 0 48 48" fill="none" xmlns="http://www.w3.org/2000/svg">
<g clip-path="url(#clip0_305_80)">
<path d="M46.608 6.0201C46.4696 5.93584 46.3123 5.88742 46.1505 5.87921C45.9886 5.871 45.8273 5.90327 45.681 5.9731L38.057 9.5641C36.7364 10.186 35.6035 11.1459 34.7733 12.3466C33.943 13.5472 33.4447 14.9459 33.329 16.4011L33.133 18.8371L29.183 25.3981V22.5971C29.183 22.5871 29.177 22.5801 29.177 22.5701C29.1758 22.4737 29.1603 22.378 29.131 22.2861L27.293 16.7721L31.046 9.2681C31.1268 9.10415 31.1603 8.92096 31.1428 8.73903C31.1253 8.55711 31.0575 8.38365 30.947 8.2381L25.047 0.371097C24.9514 0.255047 24.8313 0.161591 24.6953 0.0974322C24.5594 0.0332729 24.4109 0 24.2605 0C24.1102 0 23.9617 0.0332729 23.8257 0.0974322C23.6897 0.161591 23.5696 0.255047 23.474 0.371097L17.573 8.2401C17.4634 8.38623 17.3967 8.55998 17.3803 8.74189C17.3639 8.9238 17.3984 9.1067 17.48 9.2701L21.233 16.7731L19.395 22.2871C19.3654 22.3789 19.3495 22.4746 19.348 22.5711V26.5221L13.221 17.2231C13.214 17.2131 13.201 17.2061 13.195 17.1971C13.136 17.1151 13.0649 17.0426 12.984 16.9821C12.964 16.9691 12.948 16.9521 12.928 16.9401C12.908 16.9271 12.906 16.9201 12.893 16.9131L9.28802 14.8281L7.79102 12.5571L5.62802 9.2701C5.50728 9.08704 5.3288 8.94961 5.12096 8.87966C4.91312 8.80972 4.68787 8.81128 4.48102 8.8841L0.654017 10.2271C0.513477 10.2771 0.386148 10.3583 0.281673 10.4648C0.177198 10.5712 0.0983179 10.7001 0.0510066 10.8415C0.00369532 10.983 -0.0108063 11.1333 0.00860016 11.2812C0.0280066 11.4291 0.0808122 11.5706 0.163017 11.6951L2.86802 15.8021L4.36002 18.0721L4.85202 22.2091C4.85458 22.2226 4.85792 22.236 4.86202 22.2491C4.86602 22.2691 4.87102 22.2901 4.87702 22.3101C4.8993 22.4141 4.93849 22.5138 4.99302 22.6051C5.00002 22.6151 5.00002 22.6281 5.00702 22.6381C5.01402 22.6481 19.631 44.8031 19.702 44.8631C20.0534 45.7859 20.677 46.5801 21.4902 47.1404C22.3033 47.7006 23.2676 48.0005 24.255 48.0001C24.655 48.0001 25.055 47.9501 25.445 47.8551C26.0724 47.7012 26.6631 47.4245 27.1828 47.0408C27.7026 46.6572 28.1411 46.1743 28.473 45.6201L41.553 23.9221L43.618 22.6151C44.7024 21.9251 45.6128 20.9939 46.278 19.8941C47.123 18.4947 47.5336 16.876 47.458 15.2431L47.075 6.8231C47.0693 6.66114 47.0237 6.50311 46.9422 6.36302C46.8608 6.22294 46.746 6.10514 46.608 6.0201V6.0201ZM39.486 23.5441L37.964 26.0711L32.91 23.0231L34.434 20.4961L39.486 23.5441V23.5441ZM21.315 38.4461V23.5801H27.215V28.6601L21.315 38.4461V38.4461ZM23.008 17.6801H25.523L26.833 21.6131H21.697L23.007 17.6801H23.008ZM24.265 10.7951C24.0043 10.7951 23.7543 10.6915 23.5699 10.5072C23.3856 10.3228 23.282 10.0728 23.282 9.8121C23.282 9.55139 23.3856 9.30136 23.5699 9.11701C23.7543 8.93266 24.0043 8.8291 24.265 8.8291C24.5257 8.8291 24.7758 8.93266 24.9601 9.11701C25.1445 9.30136 25.248 9.55139 25.248 9.8121C25.248 10.0728 25.1445 10.3228 24.9601 10.5072C24.7758 10.6915 24.5257 10.7951 24.265 10.7951V10.7951ZM24.265 2.6011L29.015 8.9321L25.625 15.7121H25.248V12.5821C25.9042 12.3502 26.4572 11.8938 26.8094 11.2936C27.1616 10.6933 27.2902 9.98792 27.1726 9.30202C27.0549 8.61611 26.6986 7.99387 26.1665 7.5453C25.6345 7.09672 24.9609 6.85069 24.265 6.85069C23.5691 6.85069 22.8956 7.09672 22.3635 7.5453C21.8315 7.99387 21.4751 8.61611 21.3575 9.30202C21.2398 9.98792 21.3685 10.6933 21.7206 11.2936C22.0728 11.8938 22.6259 12.3502 23.282 12.5821V15.7121H22.906L19.516 8.9321L24.266 2.6011H24.265ZM10.53 17.8181L10.24 18.0081L6.61902 20.3951L6.28602 17.6081C6.26768 17.4566 6.21426 17.3114 6.13002 17.1841L5.04902 15.5421L6.69002 14.4601L7.77102 16.1021C7.85525 16.2295 7.96787 16.3356 8.10002 16.4121L10.529 17.8181H10.53ZM4.40802 10.9921L5.60802 12.8141L3.96602 13.8961L2.49102 11.6641L4.40802 10.9921ZM9.65702 20.7471L12.115 19.1231L19.348 30.0951V40.8211L7.19302 22.3711L9.65702 20.7471ZM26.792 44.5981C26.5919 44.9298 26.3284 45.2189 26.0165 45.4487C25.7047 45.6786 25.3506 45.8448 24.9745 45.9379C24.5985 46.0309 24.2077 46.049 23.8247 45.991C23.4416 45.9331 23.0737 45.8002 22.742 45.6001C22.4103 45.4 22.1212 45.1364 21.8914 44.8246C21.6615 44.5128 21.4953 44.1587 21.4022 43.7826C21.3092 43.4065 21.2911 43.0158 21.3491 42.6328C21.407 42.2497 21.5399 41.8818 21.74 41.5501L29.165 29.2351H29.182V29.2081L31.894 24.7091L34.421 26.2351L36.951 27.7551L26.791 44.5981H26.792ZM44.599 18.8741C44.0919 19.7122 43.3978 20.4217 42.571 20.9471L40.824 22.0541L37.972 20.3371L35.12 18.6201L35.282 16.5551C35.3704 15.4457 35.7503 14.3794 36.3831 13.464C37.016 12.5486 37.8794 11.8166 38.886 11.3421L45.18 8.3801L45.305 11.1201C45.2065 11.1097 45.1071 11.1144 45.01 11.1341L42.628 11.7241C41.5414 11.9895 40.5509 12.5539 39.7688 13.3535C38.9867 14.1532 38.4443 15.1559 38.203 16.2481C38.146 16.5026 38.1924 16.7693 38.332 16.9895C38.4716 17.2098 38.693 17.3656 38.9475 17.4226C39.202 17.4796 39.4687 17.4332 39.689 17.2936C39.9092 17.154 40.065 16.9326 40.122 16.6781C40.2849 15.9437 40.6501 15.2694 41.1762 14.7317C41.7023 14.1939 42.3683 13.8141 43.099 13.6351L45.396 13.0651L45.499 15.3271C45.5565 16.5727 45.2433 17.8075 44.599 18.8751V18.8741Z" fill="#2BD0D0"/>
</g>
<defs>
<clipPath id="clip0_305_80">
<rect width="48" height="48" fill="white"/>
</clipPath>
</defs>
</svg>

<svg xmlns="http://www.w3.org/2000/svg" width="48" height="48"><path fill="#2BD0D0" d="M46.608 6.02a.975.975 0 00-.927-.047l-7.624 3.591a8.283 8.283 0 00-4.728 6.837l-.196 2.436-3.95 6.561v-2.801c0-.01-.006-.017-.006-.027a.974.974 0 00-.046-.284l-1.838-5.514 3.753-7.504a.984.984 0 00-.099-1.03l-5.9-7.867a1.019 1.019 0 00-1.573 0L17.573 8.24a.984.984 0 00-.093 1.03l3.753 7.503-1.838 5.514a.974.974 0 00-.047.284v3.951l-6.127-9.299c-.007-.01-.02-.017-.026-.026a.995.995 0 00-.211-.215c-.02-.013-.036-.03-.056-.042-.02-.013-.022-.02-.035-.027l-3.605-2.085-1.497-2.271L5.628 9.27a.983.983 0 00-1.147-.386L.654 10.227a.983.983 0 00-.491 1.468l2.705 4.107 1.492 2.27.492 4.137a.36.36 0 00.01.04c.004.02.009.041.015.061a.973.973 0 00.116.295c.007.01.007.023.014.033.007.01 14.624 22.165 14.695 22.225A4.87 4.87 0 0024.255 48c.4 0 .8-.05 1.19-.145a4.886 4.886 0 003.028-2.235l13.08-21.698 2.065-1.307a8.343 8.343 0 002.66-2.721 8.259 8.259 0 001.18-4.651l-.383-8.42a.984.984 0 00-.467-.803zm-7.122 17.524l-1.522 2.527-5.054-3.048 1.524-2.527 5.052 3.048zM21.315 38.446V23.58h5.9v5.08l-5.9 9.786zm1.693-20.766h2.515l1.31 3.933h-5.136l1.31-3.933zm1.257-6.885a.983.983 0 110-1.966.983.983 0 010 1.966zm0-8.194l4.75 6.331-3.39 6.78h-.377v-3.13a2.95 2.95 0 10-1.966 0v3.13h-.376l-3.39-6.78 4.75-6.331zM10.53 17.818l-.29.19-3.621 2.387-.333-2.787a.982.982 0 00-.156-.424l-1.081-1.642L6.69 14.46l1.081 1.642a.988.988 0 00.329.31l2.429 1.406zm-6.122-6.826l1.2 1.822-1.642 1.082-1.475-2.232 1.917-.672zm5.249 9.755l2.458-1.624 7.233 10.972v10.726L7.193 22.371l2.464-1.624zm17.135 23.851a2.95 2.95 0 11-5.052-3.048l7.425-12.315h.017v-.027l2.712-4.499 2.527 1.526 2.53 1.52-10.16 16.843zm17.807-25.724a6.353 6.353 0 01-2.028 2.073l-1.747 1.107-2.852-1.717-2.852-1.717.162-2.065a6.318 6.318 0 013.604-5.213L45.18 8.38l.125 2.74a.973.973 0 00-.295.014l-2.382.59a5.986 5.986 0 00-4.425 4.524.983.983 0 001.919.43 4.032 4.032 0 012.977-3.043l2.297-.57.103 2.262a6.304 6.304 0 01-.9 3.548z"/></svg>
